Newaita-dark/apps/48/com.github.bartzaalberg.bookmark-manager.svg

<svg height="48" viewBox="0 0 48 48" width="48" xmlns="http://www.w3.org/2000/svg" xmlns:xlink="http://www.w3.org/1999/xlink"><linearGradient id="a" gradientUnits="userSpaceOnUse" x1="23.81478" x2="23.81478" y1="42.0509045" y2="44.03547050005"><stop offset="0" stop-opacity=".27451"/><stop offset="1" stop-opacity="0"/></linearGradient><linearGradient id="b"><stop offset="0" stop-opacity=".313726"/><stop offset=".222222" stop-opacity=".27451"/><stop offset="1" stop-opacity="0"/></linearGradient><radialGradient id="c" cx="450.908936" cy="189.579361" gradientTransform="matrix(.00000026 -.117199 -.210958 -.00000015 75.219128 95.392999)" gradientUnits="userSpaceOnUse" r="21.166656" xlink:href="#b"/><radialGradient id="d" cx="450.908936" cy="189.579361" gradientTransform="matrix(-.00000026 .117199 .210958 .00000015 -27.589573 -11.29122)" gradientUnits="userSpaceOnUse" r="21.166656" xlink:href="#b"/><radialGradient id="e" cx="450.908936" cy="189.579361" gradientTransform="matrix(-.00000026 -.117199 .210958 -.00000015 -27.589573 95.392999)" gradientUnits="userSpaceOnUse" r="21.166656" xlink:href="#b"/><radialGradient id="f" cx="450.908936" cy="189.579361" gradientTransform="matrix(.00000026 .117199 -.210958 .00000015 75.219126 -11.291219)" gradientUnits="userSpaceOnUse" r="21.166656" xlink:href="#b"/><linearGradient id="g"><stop offset="0" stop-color="#424242"/><stop offset="1" stop-color="#616161"/></linearGradient><linearGradient id="h" gradientTransform="matrix(.113024 0 0 .326118 -8.78102 50.462022)" gradientUnits="userSpaceOnUse" x1="306.916656" x2="305.954559" xlink:href="#g" y1="-25.791676" y2="-141.414581"/><linearGradient id="i" gradientTransform="matrix(4.556143 0 0 13.146184 -353.972656 2034.180176)" gradientUnits="userSpaceOnUse" x1="165.484848" x2="165.484848" xlink:href="#g" y1="-25.791672" y2="-141.414581"/><linearGradient id="j"><stop offset="0" stop-color="#42a5f5"/><stop offset="1" stop-color="#64b5f6"/></linearGradient><linearGradient id="k" gradientUnits="userSpaceOnUse" x1="275.166301" x2="275.166301" xlink:href="#j" y1="233.49969318561" y2="-168.66647475188"/><linearGradient id="l" gradientUnits="userSpaceOnUse" x1="370.416376" x2="370.416376" xlink:href="#j" y1="80.0412949526" y2="-168.66671710991"/><linearGradient id="m" gradientUnits="userSpaceOnUse" x1="22.82250375005" x2="22.82250375005" y1="42.0509015" y2="4.3441580001"><stop offset="0" stop-color="#bdbdbd"/><stop offset="1" stop-color="#e0e0e0"/></linearGradient><linearGradient id="n" gradientUnits="userSpaceOnUse" x1="9.9228265001" x2="9.9228265001" xlink:href="#g" y1="15.75543303125" y2="13.77086768752"/><linearGradient id="o" gradientUnits="userSpaceOnUse" x1="9.9228265001" x2="9.9228265001" xlink:href="#g" y1="32.12809103125" y2="30.14352568752"/><path d="m11.90625 42.050781h23.816406v1.984375h-23.816406zm0 0" fill="url(#a)"/><path d="m35.722656 42.050781h3.96875v-1.984375h-3.96875zm0 0" fill="url(#c)"/><path d="m11.90625 42.050781h-3.96875v1.984375h3.96875zm0 0" fill="url(#d)"/><path d="m11.90625 42.050781h-3.96875v-1.984375h3.96875zm0 0" fill="url(#e)"/><path d="m35.722656 42.050781h3.96875v1.984375h-3.96875zm0 0" fill="url(#f)"/><path d="m9.921875 4.34375h27.785156c1.097657 0 1.984375.890625 1.984375 1.984375v33.738281c0 1.097656-.886718 1.984375-1.984375 1.984375h-27.785156c-1.09375 0-1.984375-.886719-1.984375-1.984375v-33.738281c0-1.09375.890625-1.984375 1.984375-1.984375zm0 0" fill="url(#h)"/><path d="m399.961827 175.101398c-44.247746 0-79.992366 35.74462-79.992366 79.992365v1360.027676c0 44.247745 35.74462 79.992365 79.992366 79.992365h119.988548v-1520.012406zm0 0" fill="url(#i)" stroke="#212121" stroke-linecap="round" stroke-width="11.338583" transform="scale(.0248071)"/><path d="m9.921875 42.050781c-1.097656 0-1.984375-.886719-1.984375-1.984375v-.25c0 1.101563.886719 1.988282 1.984375 1.988282h27.785156c1.097657 0 1.984375-.886719 1.984375-1.988282v.25c0 1.097656-.886718 1.984375-1.984375 1.984375zm0 0" fill-opacity=".196078"/><path d="m9.921875 4.34375c-1.097656 0-1.984375.886719-1.984375 1.984375v.25c0-1.101563.886719-1.988281 1.984375-1.984375h27.785156c1.097657-.003906 1.984375.882812 1.984375 1.984375v-.25c0-1.097656-.886718-1.984375-1.984375-1.984375zm0 0" fill="#e6e6e6" fill-opacity=".392157"/><path d="m9.921875 4.203125c-1.175781 0-2.125.949219-2.125 2.125v33.738281c0 1.175782.949219 2.125 2.125 2.125h27.785156c1.175781 0 2.125-.949218 2.125-2.125v-33.738281c0-1.175781-.949219-2.125-2.125-2.125zm0 .28125h27.785156c1.023438 0 1.84375.820313 1.84375 1.84375v33.738281c0 1.023438-.820312 1.84375-1.84375 1.84375h-27.785156c-1.023437 0-1.84375-.820312-1.84375-1.84375v-33.738281c0-1.023437.820313-1.84375 1.84375-1.84375zm0 0" fill="#212121"/><path d="m148.152519-147.506445v359.840637h243.435086c5.874439 0 10.582323-4.707884 10.582323-10.582323v-338.675992c0-5.874439-4.707884-10.582322-10.582323-10.582322zm0 0" style="fill:none;stroke-width:8;stroke-linecap:round;stroke-linejoin:round;stroke-dasharray:16.000002 16.000002;stroke-dashoffset:7.200001;stroke:url(#k)" transform="matrix(.093759 0 0 .093759 0 20.158175)"/><path d="m349.258314-168.671091v254.017409c15.873484-42.329291 26.455807-42.329291 42.329291 0v-254.017409zm0 0" fill="url(#l)" stroke="#212121" stroke-linecap="round" stroke-linejoin="round" stroke-width="3" transform="matrix(.093759 0 0 .093759 0 20.158175)"/><path d="m18.441406 10.058594c-.386718-.390625-1.011718-.390625-1.402344 0-.390624.386718-.390624 1.011718 0 1.402344l2.804688 2.804687-2.804688 2.808594c-.390624.386719-.390624 1.015625 0 1.402343.390626.390626 1.015626.390626 1.402344 0l3.507813-3.507812c.027343-.023438.046875-.050781.070312-.074219.316407-.390625.296875-.964843-.070312-1.328125zm0 0" fill="url(#m)"/><path d="m17.742188 9.765625c-.253907 0-.507813.097656-.703126.292969-.257812.253906-.34375.617187-.261718.945312.042968-.167968.128906-.328125.261718-.457031.390626-.390625 1.015626-.390625 1.402344 0l3.507813 3.507813c.132812.132812.21875.289062.261719.457031.082031-.328125-.003907-.6875-.261719-.945313l-3.507813-3.507812c-.195312-.195313-.445312-.292969-.699218-.292969zm1.859374 4.746094-2.5625 2.5625c-.257812.257812-.34375.617187-.261718.945312.042968-.167969.128906-.324219.261718-.457031l2.804688-2.808594zm0 0" fill="#fff"/><path d="m16.820312 11.128906c-.144531.359375-.074218.785156.21875 1.074219l2.433594 2.4375.371094-.375-2.804688-2.804687c-.097656-.097657-.171874-.210938-.21875-.332032zm5.347657 3.511719c-.035157.089844-.085938.175781-.148438.253906-.023437.023438-.042969.050781-.070312.074219l-3.507813 3.507812c-.386718.390626-1.011718.390626-1.402344 0-.097656-.097656-.171874-.210937-.21875-.328124-.144531.355468-.074218.78125.21875 1.074218.390626.386719 1.015626.386719 1.402344 0l3.507813-3.507812v-.003906c.027343-.023438.046875-.046876.070312-.074219.234375-.285157.28125-.667969.148438-.996094zm0 0" fill-opacity=".235294"/><path d="m196.68955-107.718578c-4.124606-4.166269-10.790636-4.166269-14.956905 0-4.166268 4.124606-4.166268 10.790636 0 14.956905l29.91381 29.91381-29.91381 29.955473c-4.166268 4.124606-4.166268 10.832298 0 14.956905 4.166269 4.166268 10.832299 4.166268 14.956905 0l37.413094-37.413094c.291639-.249976.499953-.541615.749929-.791591 3.374677-4.166269 3.166364-10.290684-.749929-14.165314zm0 0" fill="none" stroke="#212121" stroke-linecap="round" stroke-width="3" transform="matrix(.093759 0 0 .093759 0 20.158175)"/><path d="m9.921875 4.203125c-1.175781 0-2.125.949219-2.125 2.125v33.738281c0 1.175782.949219 2.125 2.125 2.125h27.785156c1.175781 0 2.125-.949218 2.125-2.125v-33.738281c0-1.175781-.949219-2.125-2.125-2.125zm0 .28125h27.785156c1.023438 0 1.84375.820313 1.84375 1.84375v33.738281c0 1.023438-.820312 1.84375-1.84375 1.84375h-27.785156c-1.023437 0-1.84375-.820312-1.84375-1.84375v-33.738281c0-1.023437.820313-1.84375 1.84375-1.84375zm0 0" fill="#212121"/><path d="m7.9375 13.769531h4.960938v1.984375h-4.960938zm0 0" fill="url(#n)"/><path d="m7.9375 15.753906v.746094h4.960938v-.746094zm0 0" fill-opacity=".235294"/><path d="m7.9375 13.769531v.496094h4.960938v-.496094zm0 0" fill="#fff" fill-opacity=".392157"/><path d="m84.658603-20.514257h52.911613v21.164645h-52.911613zm0 0" fill="none" stroke="#212121" stroke-linecap="round" stroke-linejoin="round" stroke-width="3" transform="matrix(.093759 0 0 .093759 -.000002 15.692927)"/><path d="m7.9375 30.144531h4.960938v1.984375h-4.960938zm0 0" fill="url(#o)"/><path d="m7.9375 32.128906v.742188h4.960938v-.742188zm0 0" fill-opacity=".235294"/><path d="m7.9375 30.144531v.496094h4.960938v-.496094zm0 0" fill="#fff" fill-opacity=".392157"/><path d="m84.658603-20.489288h52.911613v21.164646h-52.911613zm0 0" fill="none" stroke="#212121" stroke-linecap="round" stroke-linejoin="round" stroke-width="3" transform="matrix(.093759 0 0 .093759 -.000002 32.065585)"/></svg>

<?xml version="1.0" encoding="UTF-8"?>
<svg xmlns="http://www.w3.org/2000/svg" xmlns:xlink="http://www.w3.org/1999/xlink" width="48px" height="48px" viewBox="0 0 48 48" version="1.1">
<defs>
<linearGradient id="linear0" gradientUnits="userSpaceOnUse" x1="254" y1="233.5" x2="254" y2="254.666672" gradientTransform="matrix(0.093759,0,0,0.093759,-0.00000572259,20.158178)">
<stop offset="0" style="stop-color:rgb(0%,0%,0%);stop-opacity:0.27451;"/>
<stop offset="1" style="stop-color:rgb(0%,0%,0%);stop-opacity:0;"/>
</linearGradient>
<radialGradient id="radial0" gradientUnits="userSpaceOnUse" cx="450.908936" cy="189.579361" fx="450.908936" fy="189.579361" r="21.166656" gradientTransform="matrix(0.000000261256,-0.117199,-0.210958,-0.000000152308,75.219128,95.392999)">
<stop offset="0" style="stop-color:rgb(0%,0%,0%);stop-opacity:0.313726;"/>
<stop offset="0.222222" style="stop-color:rgb(0%,0%,0%);stop-opacity:0.27451;"/>
<stop offset="1" style="stop-color:rgb(0%,0%,0%);stop-opacity:0;"/>
</radialGradient>
<radialGradient id="radial1" gradientUnits="userSpaceOnUse" cx="450.908936" cy="189.579361" fx="450.908936" fy="189.579361" r="21.166656" gradientTransform="matrix(-0.000000261256,0.117199,0.210958,0.000000152308,-27.589573,-11.29122)">
<stop offset="0" style="stop-color:rgb(0%,0%,0%);stop-opacity:0.313726;"/>
<stop offset="0.222222" style="stop-color:rgb(0%,0%,0%);stop-opacity:0.27451;"/>
<stop offset="1" style="stop-color:rgb(0%,0%,0%);stop-opacity:0;"/>
</radialGradient>
<radialGradient id="radial2" gradientUnits="userSpaceOnUse" cx="450.908936" cy="189.579361" fx="450.908936" fy="189.579361" r="21.166656" gradientTransform="matrix(-0.000000261256,-0.117199,0.210958,-0.000000152308,-27.589573,95.392999)">
<stop offset="0" style="stop-color:rgb(0%,0%,0%);stop-opacity:0.313726;"/>
<stop offset="0.222222" style="stop-color:rgb(0%,0%,0%);stop-opacity:0.27451;"/>
<stop offset="1" style="stop-color:rgb(0%,0%,0%);stop-opacity:0;"/>
</radialGradient>
<radialGradient id="radial3" gradientUnits="userSpaceOnUse" cx="450.908936" cy="189.579361" fx="450.908936" fy="189.579361" r="21.166656" gradientTransform="matrix(0.000000261256,0.117199,-0.210958,0.000000152308,75.219126,-11.291219)">
<stop offset="0" style="stop-color:rgb(0%,0%,0%);stop-opacity:0.313726;"/>
<stop offset="0.222222" style="stop-color:rgb(0%,0%,0%);stop-opacity:0.27451;"/>
<stop offset="1" style="stop-color:rgb(0%,0%,0%);stop-opacity:0;"/>
</radialGradient>
<linearGradient id="linear1" gradientUnits="userSpaceOnUse" x1="306.916656" y1="-25.791676" x2="305.954559" y2="-141.414581" gradientTransform="matrix(0.113024,0,0,0.326118,-8.78102,50.462022)">
<stop offset="0" style="stop-color:rgb(25.882354%,25.882354%,25.882354%);stop-opacity:1;"/>
<stop offset="1" style="stop-color:rgb(38.039216%,38.039216%,38.039216%);stop-opacity:1;"/>
</linearGradient>
<linearGradient id="linear2" gradientUnits="userSpaceOnUse" x1="165.484848" y1="-25.791672" x2="165.484848" y2="-141.414581" gradientTransform="matrix(4.556143,0,0,13.146184,-353.972656,2034.180176)">
<stop offset="0" style="stop-color:rgb(25.882354%,25.882354%,25.882354%);stop-opacity:1;"/>
<stop offset="1" style="stop-color:rgb(38.039216%,38.039216%,38.039216%);stop-opacity:1;"/>
</linearGradient>
<linearGradient id="linear3" gradientUnits="userSpaceOnUse" x1="1040" y1="1695.118164" x2="1040" y2="175.118134" gradientTransform="matrix(0.264583,0,0,0.264583,-0.0000193333,-214.999756)">
<stop offset="0" style="stop-color:rgb(25.882354%,64.705884%,96.078432%);stop-opacity:1;"/>
<stop offset="1" style="stop-color:rgb(39.215687%,70.980394%,96.470588%);stop-opacity:1;"/>
</linearGradient>
<linearGradient id="linear4" gradientUnits="userSpaceOnUse" x1="840" y1="1115.117188" x2="840" y2="175.117218" gradientTransform="matrix(0.264583,0,0,0.264583,148.166656,-214.999756)">
<stop offset="0" style="stop-color:rgb(25.882354%,64.705884%,96.078432%);stop-opacity:1;"/>
<stop offset="1" style="stop-color:rgb(39.215687%,70.980394%,96.470588%);stop-opacity:1;"/>
</linearGradient>
<linearGradient id="linear5" gradientUnits="userSpaceOnUse" x1="243.416672" y1="233.5" x2="243.416672" y2="-168.666656" gradientTransform="matrix(0.093759,0,0,0.093759,0,20.158175)">
<stop offset="0" style="stop-color:rgb(74.117649%,74.117649%,74.117649%);stop-opacity:1;"/>
<stop offset="1" style="stop-color:rgb(87.843138%,87.843138%,87.843138%);stop-opacity:1;"/>
</linearGradient>
<linearGradient id="linear6" gradientUnits="userSpaceOnUse" x1="105.833344" y1="0.666667" x2="105.833344" y2="-20.499998" gradientTransform="matrix(0.093759,0,0,0.093759,-0.00000190643,15.692927)">
<stop offset="0" style="stop-color:rgb(25.882354%,25.882354%,25.882354%);stop-opacity:1;"/>
<stop offset="1" style="stop-color:rgb(38.039216%,38.039216%,38.039216%);stop-opacity:1;"/>
</linearGradient>
<linearGradient id="linear7" gradientUnits="userSpaceOnUse" x1="105.833344" y1="0.666667" x2="105.833344" y2="-20.499998" gradientTransform="matrix(0.093759,0,0,0.093759,-0.00000190643,32.065585)">
<stop offset="0" style="stop-color:rgb(25.882354%,25.882354%,25.882354%);stop-opacity:1;"/>
<stop offset="1" style="stop-color:rgb(38.039216%,38.039216%,38.039216%);stop-opacity:1;"/>
</linearGradient>
</defs>
<g id="surface1">
<path style=" stroke:none;fill-rule:nonzero;fill:url(#linear0);" d="M 11.90625 42.050781 L 35.722656 42.050781 L 35.722656 44.035156 L 11.90625 44.035156 Z M 11.90625 42.050781 "/>
<path style=" stroke:none;fill-rule:nonzero;fill:url(#radial0);" d="M 35.722656 42.050781 L 39.691406 42.050781 L 39.691406 40.066406 L 35.722656 40.066406 Z M 35.722656 42.050781 "/>
<path style=" stroke:none;fill-rule:nonzero;fill:url(#radial1);" d="M 11.90625 42.050781 L 7.9375 42.050781 L 7.9375 44.035156 L 11.90625 44.035156 Z M 11.90625 42.050781 "/>
<path style=" stroke:none;fill-rule:nonzero;fill:url(#radial2);" d="M 11.90625 42.050781 L 7.9375 42.050781 L 7.9375 40.066406 L 11.90625 40.066406 Z M 11.90625 42.050781 "/>
<path style=" stroke:none;fill-rule:nonzero;fill:url(#radial3);" d="M 35.722656 42.050781 L 39.691406 42.050781 L 39.691406 44.035156 L 35.722656 44.035156 Z M 35.722656 42.050781 "/>
<path style=" stroke:none;fill-rule:nonzero;fill:url(#linear1);" d="M 9.921875 4.34375 L 37.707031 4.34375 C 38.804688 4.34375 39.691406 5.234375 39.691406 6.328125 L 39.691406 40.066406 C 39.691406 41.164062 38.804688 42.050781 37.707031 42.050781 L 9.921875 42.050781 C 8.828125 42.050781 7.9375 41.164062 7.9375 40.066406 L 7.9375 6.328125 C 7.9375 5.234375 8.828125 4.34375 9.921875 4.34375 Z M 9.921875 4.34375 "/>
<path style="fill-rule:nonzero;fill:url(#linear2);stroke-width:11.338583;stroke-linecap:round;stroke-linejoin:miter;stroke:rgb(12.941177%,12.941177%,12.941177%);stroke-opacity:1;stroke-miterlimit:4;" d="M 399.961827 175.101398 C 355.714081 175.101398 319.969461 210.846018 319.969461 255.093763 L 319.969461 1615.121439 C 319.969461 1659.369184 355.714081 1695.113804 399.961827 1695.113804 L 519.950375 1695.113804 L 519.950375 175.101398 Z M 399.961827 175.101398 " transform="matrix(0.0248071,0,0,0.0248071,0,0)"/>
<path style=" stroke:none;fill-rule:nonzero;fill:rgb(0%,0%,0%);fill-opacity:0.196078;" d="M 9.921875 42.050781 C 8.824219 42.050781 7.9375 41.164062 7.9375 40.066406 L 7.9375 39.816406 C 7.9375 40.917969 8.824219 41.804688 9.921875 41.804688 L 37.707031 41.804688 C 38.804688 41.804688 39.691406 40.917969 39.691406 39.816406 L 39.691406 40.066406 C 39.691406 41.164062 38.804688 42.050781 37.707031 42.050781 Z M 9.921875 42.050781 "/>
<path style=" stroke:none;fill-rule:nonzero;fill:rgb(90.196079%,90.196079%,90.196079%);fill-opacity:0.392157;" d="M 9.921875 4.34375 C 8.824219 4.34375 7.9375 5.230469 7.9375 6.328125 L 7.9375 6.578125 C 7.9375 5.476562 8.824219 4.589844 9.921875 4.59375 L 37.707031 4.59375 C 38.804688 4.589844 39.691406 5.476562 39.691406 6.578125 L 39.691406 6.328125 C 39.691406 5.230469 38.804688 4.34375 37.707031 4.34375 Z M 9.921875 4.34375 "/>
<path style=" stroke:none;fill-rule:nonzero;fill:rgb(12.941177%,12.941177%,12.941177%);fill-opacity:1;" d="M 9.921875 4.203125 C 8.746094 4.203125 7.796875 5.152344 7.796875 6.328125 L 7.796875 40.066406 C 7.796875 41.242188 8.746094 42.191406 9.921875 42.191406 L 37.707031 42.191406 C 38.882812 42.191406 39.832031 41.242188 39.832031 40.066406 L 39.832031 6.328125 C 39.832031 5.152344 38.882812 4.203125 37.707031 4.203125 Z M 9.921875 4.484375 L 37.707031 4.484375 C 38.730469 4.484375 39.550781 5.304688 39.550781 6.328125 L 39.550781 40.066406 C 39.550781 41.089844 38.730469 41.910156 37.707031 41.910156 L 9.921875 41.910156 C 8.898438 41.910156 8.078125 41.089844 8.078125 40.066406 L 8.078125 6.328125 C 8.078125 5.304688 8.898438 4.484375 9.921875 4.484375 Z M 9.921875 4.484375 "/>
<path style="fill:none;stroke-width:8;stroke-linecap:round;stroke-linejoin:round;stroke:url(#linear3);stroke-dasharray:16.000002,16.000002;stroke-dashoffset:7.200001;stroke-miterlimit:4;" d="M 148.152519 -147.506445 L 148.152519 212.334192 L 391.587605 212.334192 C 397.462044 212.334192 402.169928 207.626308 402.169928 201.751869 L 402.169928 -136.924123 C 402.169928 -142.798562 397.462044 -147.506445 391.587605 -147.506445 Z M 148.152519 -147.506445 " transform="matrix(0.093759,0,0,0.093759,0,20.158175)"/>
<path style="fill-rule:nonzero;fill:url(#linear4);stroke-width:3;stroke-linecap:round;stroke-linejoin:round;stroke:rgb(12.941177%,12.941177%,12.941177%);stroke-opacity:1;stroke-miterlimit:4;" d="M 349.258314 -168.671091 L 349.258314 85.346318 C 365.131798 43.017027 375.714121 43.017027 391.587605 85.346318 L 391.587605 -168.671091 Z M 349.258314 -168.671091 " transform="matrix(0.093759,0,0,0.093759,0,20.158175)"/>
<path style=" stroke:none;fill-rule:nonzero;fill:url(#linear5);" d="M 18.441406 10.058594 C 18.054688 9.667969 17.429688 9.667969 17.039062 10.058594 C 16.648438 10.445312 16.648438 11.070312 17.039062 11.460938 L 19.84375 14.265625 L 17.039062 17.074219 C 16.648438 17.460938 16.648438 18.089844 17.039062 18.476562 C 17.429688 18.867188 18.054688 18.867188 18.441406 18.476562 L 21.949219 14.96875 C 21.976562 14.945312 21.996094 14.917969 22.019531 14.894531 C 22.335938 14.503906 22.316406 13.929688 21.949219 13.566406 Z M 18.441406 10.058594 "/>
<path style=" stroke:none;fill-rule:nonzero;fill:rgb(100%,100%,100%);fill-opacity:1;" d="M 17.742188 9.765625 C 17.488281 9.765625 17.234375 9.863281 17.039062 10.058594 C 16.78125 10.3125 16.695312 10.675781 16.777344 11.003906 C 16.820312 10.835938 16.90625 10.675781 17.039062 10.546875 C 17.429688 10.15625 18.054688 10.15625 18.441406 10.546875 L 21.949219 14.054688 C 22.082031 14.1875 22.167969 14.34375 22.210938 14.511719 C 22.292969 14.183594 22.207031 13.824219 21.949219 13.566406 L 18.441406 10.058594 C 18.246094 9.863281 17.996094 9.765625 17.742188 9.765625 Z M 19.601562 14.511719 L 17.039062 17.074219 C 16.78125 17.332031 16.695312 17.691406 16.777344 18.019531 C 16.820312 17.851562 16.90625 17.695312 17.039062 17.5625 L 19.84375 14.753906 Z M 19.601562 14.511719 "/>
<path style=" stroke:none;fill-rule:nonzero;fill:rgb(0%,0%,0%);fill-opacity:0.235294;" d="M 16.820312 11.128906 C 16.675781 11.488281 16.746094 11.914062 17.039062 12.203125 L 19.472656 14.640625 L 19.84375 14.265625 L 17.039062 11.460938 C 16.941406 11.363281 16.867188 11.25 16.820312 11.128906 Z M 22.167969 14.640625 C 22.132812 14.730469 22.082031 14.816406 22.019531 14.894531 C 21.996094 14.917969 21.976562 14.945312 21.949219 14.96875 L 18.441406 18.476562 C 18.054688 18.867188 17.429688 18.867188 17.039062 18.476562 C 16.941406 18.378906 16.867188 18.265625 16.820312 18.148438 C 16.675781 18.503906 16.746094 18.929688 17.039062 19.222656 C 17.429688 19.609375 18.054688 19.609375 18.441406 19.222656 L 21.949219 15.714844 L 21.949219 15.710938 C 21.976562 15.6875 21.996094 15.664062 22.019531 15.636719 C 22.253906 15.351562 22.300781 14.96875 22.167969 14.640625 Z M 22.167969 14.640625 "/>
<path style="fill:none;stroke-width:3;stroke-linecap:round;stroke-linejoin:miter;stroke:rgb(12.941177%,12.941177%,12.941177%);stroke-opacity:1;stroke-miterlimit:4;" d="M 196.68955 -107.718578 C 192.564944 -111.884847 185.898914 -111.884847 181.732645 -107.718578 C 177.566377 -103.593972 177.566377 -96.927942 181.732645 -92.761673 L 211.646455 -62.847863 L 181.732645 -32.89239 C 177.566377 -28.767784 177.566377 -22.060092 181.732645 -17.935485 C 185.898914 -13.769217 192.564944 -13.769217 196.68955 -17.935485 L 234.102644 -55.348579 C 234.394283 -55.598555 234.602597 -55.890194 234.852573 -56.14017 C 238.22725 -60.306439 238.018937 -66.430854 234.102644 -70.305484 Z M 196.68955 -107.718578 " transform="matrix(0.093759,0,0,0.093759,0,20.158175)"/>
<path style=" stroke:none;fill-rule:nonzero;fill:rgb(12.941177%,12.941177%,12.941177%);fill-opacity:1;" d="M 9.921875 4.203125 C 8.746094 4.203125 7.796875 5.152344 7.796875 6.328125 L 7.796875 40.066406 C 7.796875 41.242188 8.746094 42.191406 9.921875 42.191406 L 37.707031 42.191406 C 38.882812 42.191406 39.832031 41.242188 39.832031 40.066406 L 39.832031 6.328125 C 39.832031 5.152344 38.882812 4.203125 37.707031 4.203125 Z M 9.921875 4.484375 L 37.707031 4.484375 C 38.730469 4.484375 39.550781 5.304688 39.550781 6.328125 L 39.550781 40.066406 C 39.550781 41.089844 38.730469 41.910156 37.707031 41.910156 L 9.921875 41.910156 C 8.898438 41.910156 8.078125 41.089844 8.078125 40.066406 L 8.078125 6.328125 C 8.078125 5.304688 8.898438 4.484375 9.921875 4.484375 Z M 9.921875 4.484375 "/>
<path style=" stroke:none;fill-rule:nonzero;fill:url(#linear6);" d="M 7.9375 13.769531 L 12.898438 13.769531 L 12.898438 15.753906 L 7.9375 15.753906 Z M 7.9375 13.769531 "/>
<path style=" stroke:none;fill-rule:nonzero;fill:rgb(0%,0%,0%);fill-opacity:0.235294;" d="M 7.9375 15.753906 L 7.9375 16.5 L 12.898438 16.5 L 12.898438 15.753906 Z M 7.9375 15.753906 "/>
<path style=" stroke:none;fill-rule:nonzero;fill:rgb(100%,100%,100%);fill-opacity:0.392157;" d="M 7.9375 13.769531 L 7.9375 14.265625 L 12.898438 14.265625 L 12.898438 13.769531 Z M 7.9375 13.769531 "/>
<path style="fill:none;stroke-width:3;stroke-linecap:round;stroke-linejoin:round;stroke:rgb(12.941177%,12.941177%,12.941177%);stroke-opacity:1;stroke-miterlimit:4;" d="M 84.658603 -20.514257 L 137.570216 -20.514257 L 137.570216 0.650388 L 84.658603 0.650388 Z M 84.658603 -20.514257 " transform="matrix(0.093759,0,0,0.093759,-0.00000190643,15.692927)"/>
<path style=" stroke:none;fill-rule:nonzero;fill:url(#linear7);" d="M 7.9375 30.144531 L 12.898438 30.144531 L 12.898438 32.128906 L 7.9375 32.128906 Z M 7.9375 30.144531 "/>
<path style=" stroke:none;fill-rule:nonzero;fill:rgb(0%,0%,0%);fill-opacity:0.235294;" d="M 7.9375 32.128906 L 7.9375 32.871094 L 12.898438 32.871094 L 12.898438 32.128906 Z M 7.9375 32.128906 "/>
<path style=" stroke:none;fill-rule:nonzero;fill:rgb(100%,100%,100%);fill-opacity:0.392157;" d="M 7.9375 30.144531 L 7.9375 30.640625 L 12.898438 30.640625 L 12.898438 30.144531 Z M 7.9375 30.144531 "/>
<path style="fill:none;stroke-width:3;stroke-linecap:round;stroke-linejoin:round;stroke:rgb(12.941177%,12.941177%,12.941177%);stroke-opacity:1;stroke-miterlimit:4;" d="M 84.658603 -20.489288 L 137.570216 -20.489288 L 137.570216 0.675358 L 84.658603 0.675358 Z M 84.658603 -20.489288 " transform="matrix(0.093759,0,0,0.093759,-0.00000190643,32.065585)"/>
</g>
</svg>
